X:1
T:Woodlynn, 11.10.11.10
T:Woodlynn, 11.10.11.10
T:John Stainer, 1889
T:Public Domain Courtesy of the Cyber Hymnal™
C:John Stainer, 1889
Z:Public Domain
Z:Courtesy of the Cyber Hymnal™
%%score ( 1 2 ) ( 3 4 )
L:1/8
M:none
K:Eb
V:1 treble 
V:2 treble 
V:3 bass 
V:4 bass 
V:1
 [EG]2 | [DG]4 [DF]4 | [DF]2 E2 [CA]2 [DG]2 | [Ec]4 [=EB]4 | [FB]4 [FA]2 [FA]2 | [FA]4 [EG]4 | %6
 [EG]2 [DF]2 [CE]2 C2 | [CE]4 [=B,D]4 | C6 C2 | [C=EG]6 [C-G-B]2 | [GB]2 [FA]2 A2 A2 x4 | %11
 [D=A]4 [DAc]4 | c4 =B2 G2 | [Ee]4 [Gd]4 | [Gc]2 [_DG]2 [CA]2 [CF]2 | C4 [_CD]4 | [B,E]6 |] %17
V:2
 x2 | x8 | x2 E2 x4 | x8 | x8 | x8 | x6 C2 | x8 | C6 C2 | x8 | C8 F4 | x8 | [DG]6 G2 | x8 | x8 | %15
 _C4 x4 | x6 |] %17
V:3
 [E,B,]2 | [B,,B,]4 [=B,,A,]4 | [C,A,]2 [C,G,]2 [CE]2 [B,D]2 | [A,C]4 [G,C]4 | %4
 [F,C]4 [F,C]2 [E,_C]2 | [D,B,]4 [E,B,]4 | [=B,,G,]2 [B,,G,]2 [C,G,]2 [A,,^F,]2 | %7
 [G,,G,]4 (G,2 F,2) | [C,E,]6 C,2 | C,6 C,2 | F,8 x4 | ^F,8 | G,6 G,2 | [C,G,]4 [D,=B,]4 | %14
 [E,C]2 [=E,B,]2 [F,A,]2 [F,A,]2 | [A,,F,]4 (F,2 A,2) | (A,4 G,2) |] %17
V:4
 x2 | x8 | x8 | x8 | x8 | x8 | x8 | x4 G,,4 | x6 C,2 | C,6 C,2 | x12 | x8 | G,6 G,2 | x8 | x8 | %15
 x4 A,,4 | G,,6 |] %17

